assets/images/svg/work-location.svg

<svg width="22" height="22" viewBox="0 0 22 22" fill="none" xmlns="http://www.w3.org/2000/svg">
<path d="M19.3325 6.39839C18.5533 5.53673 17.2517 5.10589 15.3633 5.10589H15.1433V5.06923C15.1433 3.52923 15.1433 1.62256 11.6967 1.62256H10.3033C6.85668 1.62256 6.85668 3.53839 6.85668 5.06923V5.11506H6.63668C4.73918 5.11506 3.44668 5.54589 2.66751 6.40756C1.76001 7.41589 1.78751 8.77256 1.87918 9.69839L1.88835 9.76256L1.95747 10.4883C1.97173 10.6381 2.05253 10.7735 2.17847 10.8558C2.39983 11.0005 2.75498 11.2289 2.97001 11.3484C3.09835 11.4309 3.23585 11.5042 3.37335 11.5776C4.94085 12.4392 6.66418 13.0167 8.41501 13.3009C8.49751 14.1626 8.87335 15.1709 10.8808 15.1709C12.8883 15.1709 13.2825 14.1717 13.3467 13.2826C15.2167 12.9801 17.0225 12.3292 18.6542 11.3759C18.7092 11.3484 18.7458 11.3209 18.7917 11.2934C19.1501 11.0908 19.5218 10.8418 19.8617 10.5972C19.9748 10.5157 20.0471 10.3896 20.0625 10.2511L20.075 10.1384L20.1208 9.70756C20.13 9.65256 20.13 9.60672 20.1392 9.54256C20.2125 8.61672 20.1942 7.35173 19.3325 6.39839ZM11.9992 12.6776C11.9992 13.6492 11.9992 13.7959 10.8717 13.7959C9.74418 13.7959 9.74418 13.6217 9.74418 12.6867V11.5317H11.9992V12.6776ZM8.16751 5.10589V5.06923C8.16751 3.51089 8.16751 2.93339 10.3033 2.93339H11.6967C13.8325 2.93339 13.8325 3.52006 13.8325 5.06923V5.11506H8.16751V5.10589Z" fill="#808B97"/>
<path d="M19.0675 12.6211C19.4213 12.4532 19.8277 12.7341 19.7923 13.1241L19.47 16.674C19.2775 18.5073 18.5259 20.3773 14.4925 20.3773H7.50752C3.47419 20.3773 2.72252 18.5073 2.53002 16.6832L2.22431 13.3203C2.18927 12.9349 2.58643 12.6544 2.93925 12.8136C3.99052 13.2878 5.84697 14.0911 7.0148 14.401C7.17897 14.4445 7.31188 14.5622 7.38493 14.7156C7.94556 15.8923 9.14841 16.5182 10.8809 16.5182C12.5962 16.5182 13.814 15.8682 14.3766 14.6883C14.4498 14.5348 14.5827 14.4172 14.747 14.3734C15.9878 14.0424 17.9666 13.1434 19.0675 12.6211Z" fill="#808B97"/>
</svg>

<svg xmlns="http://www.w3.org/2000/svg" width="22" height="22" fill="none" viewBox="0 0 22 22"><path fill="#808b97" d="M19.333 6.398c-.78-.861-2.081-1.292-3.97-1.292h-.22v-.037c0-1.54 0-3.446-3.446-3.446h-1.394c-3.446 0-3.446 1.915-3.446 3.446v.046h-.22c-1.898 0-3.19.43-3.97 1.293-.907 1.008-.88 2.365-.788 3.29l.01.065.068.725c.015.15.096.286.221.368.222.145.577.373.792.492.128.083.266.156.403.23 1.568.861 3.291 1.439 5.042 1.723.083.862.458 1.87 2.466 1.87s2.402-1 2.466-1.888a15.4 15.4 0 0 0 5.307-1.907c.055-.028.092-.055.138-.083.358-.202.73-.451 1.07-.696a.5.5 0 0 0 .2-.346l.013-.113.046-.43c.009-.055.009-.101.018-.165.073-.926.055-2.191-.806-3.145m-7.334 6.28c0 .971 0 1.118-1.127 1.118s-1.128-.174-1.128-1.11v-1.154H12zM8.168 5.106v-.037c0-1.558 0-2.136 2.135-2.136h1.394c2.136 0 2.136.587 2.136 2.136v.046H8.168z"/><path fill="#808b97" d="M19.068 12.621a.51.51 0 0 1 .724.503l-.322 3.55c-.192 1.833-.944 3.703-4.977 3.703H7.507c-4.034 0-4.785-1.87-4.978-3.694l-.306-3.363a.508.508 0 0 1 .715-.506c1.052.474 2.908 1.277 4.076 1.587a.58.58 0 0 1 .37.315c.56 1.176 1.763 1.802 3.496 1.802 1.715 0 2.933-.65 3.496-1.83a.58.58 0 0 1 .37-.315c1.24-.33 3.22-1.23 4.32-1.752"/></svg>
